assets/svgs/music-color/MusicColor12.svg

<svg xmlns="http://www.w3.org/2000/svg" data-name="Layer 3" viewBox="0 0 128 128"><rect width="20.48" height="71.618" x="36.004" y="28.191" fill="#bedef4" rx="1.248" ry="1.248"/><rect width="20.48" height="71.618" x="71.516" y="28.191" fill="#bedef4" rx="1.248" ry="1.248"/><path fill="#5f717f" d="M55.236 25.624H37.253a3.807 3.807 0 00-2.7 1.119v.01a3.8 3.8 0 00-1.119 2.687v69.121a3.807 3.807 0 001.119 2.687 3.806 3.806 0 002.687 1.119h17.996a3.806 3.806 0 002.687-1.119 3.807 3.807 0 001.119-2.687V29.439a3.8 3.8 0 00-1.119-2.687v-.01a3.806 3.806 0 00-2.687-1.118zm-1.319 71.618H38.571V30.758h15.346zM90.747 25.624H72.764a3.806 3.806 0 00-2.7 1.119v.01a3.8 3.8 0 00-1.119 2.687v69.121a3.807 3.807 0 001.119 2.687 3.806 3.806 0 002.687 1.119h17.996a3.806 3.806 0 002.687-1.119 3.807 3.807 0 001.119-2.687V29.439a3.8 3.8 0 00-1.119-2.687v-.01a3.806 3.806 0 00-2.687-1.118zm-1.319 71.618H74.083V30.758h15.345z"/></svg>

<svg id="Layer_3" data-name="Layer 3" xmlns="http://www.w3.org/2000/svg" viewBox="0 0 128 128"><title>Artboard 108</title><rect x="36.004" y="28.191" width="20.48" height="71.618" rx="1.248" ry="1.248" style="fill:#bedef4"/><rect x="71.516" y="28.191" width="20.48" height="71.618" rx="1.248" ry="1.248" style="fill:#bedef4"/><path d="M55.236,25.624H37.253a3.807,3.807,0,0,0-2.7,1.119v.01a3.8,3.8,0,0,0-1.119,2.687V98.561a3.807,3.807,0,0,0,1.119,2.687l0,0,0,0a3.806,3.806,0,0,0,2.687,1.119H55.236a3.806,3.806,0,0,0,2.687-1.119l0,0,0,0a3.807,3.807,0,0,0,1.119-2.687V29.439a3.8,3.8,0,0,0-1.119-2.687v-.01A3.806,3.806,0,0,0,55.236,25.624ZM53.917,97.242H38.571V30.758H53.917Z" style="fill:#5f717f"/><path d="M90.747,25.624H72.764a3.806,3.806,0,0,0-2.7,1.119v.01a3.8,3.8,0,0,0-1.119,2.687V98.561a3.807,3.807,0,0,0,1.119,2.687l0,0,0,0a3.806,3.806,0,0,0,2.687,1.119H90.747a3.806,3.806,0,0,0,2.687-1.119l0,0,0,0a3.807,3.807,0,0,0,1.119-2.687V29.439a3.8,3.8,0,0,0-1.119-2.687v-.01A3.806,3.806,0,0,0,90.747,25.624ZM89.428,97.242H74.083V30.758H89.428Z" style="fill:#5f717f"/></svg>
